public/img/instagram.svg

<svg width="48" height="48" fill="none" xmlns="http://www.w3.org/2000/svg"><g clip-path="url(#a)"><path d="M24 4.326c6.408 0 7.168.024 9.7.14 6.504.296 9.542 3.382 9.838 9.838.116 2.53.138 3.29.138 9.698 0 6.41-.024 7.168-.138 9.698-.298 6.45-3.328 9.542-9.838 9.838-2.532.116-3.288.14-9.7.14-6.408 0-7.168-.024-9.698-.14-6.52-.298-9.542-3.398-9.838-9.84-.116-2.53-.14-3.288-.14-9.698 0-6.408.026-7.166.14-9.698.298-6.454 3.328-9.542 9.838-9.838 2.532-.114 3.29-.138 9.698-.138ZM24 0c-6.518 0-7.334.028-9.894.144C5.39.544.546 5.38.146 14.104.028 16.666 0 17.482 0 24c0 6.518.028 7.336.144 9.896.4 8.716 5.236 13.56 13.96 13.96 2.562.116 3.378.144 9.896.144 6.518 0 7.336-.028 9.896-.144 8.708-.4 13.564-5.236 13.958-13.96.118-2.56.146-3.378.146-9.896 0-6.518-.028-7.334-.144-9.894C47.464 5.398 42.622.546 33.898.146 31.336.028 30.518 0 24 0Zm0 11.676c-6.806 0-12.324 5.518-12.324 12.324S17.194 36.326 24 36.326 36.324 30.808 36.324 24c0-6.806-5.518-12.324-12.324-12.324ZM24 32a8 8 0 1 1 0-16 8 8 0 0 1 0 16ZM36.812 8.31a2.881 2.881 0 1 0-.002 5.762 2.881 2.881 0 0 0 .002-5.762Z" fill="#2E2A2A"/></g><defs><clipPath id="a"><path fill="#fff" d="M0 0h48v48H0z"/></clipPath></defs></svg>

<svg width="48" height="48" viewBox="0 0 48 48" fill="none" xmlns="http://www.w3.org/2000/svg">
<g clip-path="url(#clip0_29_126)">
<path d="M24 4.326C30.408 4.326 31.168 4.35 33.7 4.466C40.204 4.762 43.242 7.848 43.538 14.304C43.654 16.834 43.676 17.594 43.676 24.002C43.676 30.412 43.652 31.17 43.538 33.7C43.24 40.15 40.21 43.242 33.7 43.538C31.168 43.654 30.412 43.678 24 43.678C17.592 43.678 16.832 43.654 14.302 43.538C7.782 43.24 4.76 40.14 4.464 33.698C4.348 31.168 4.324 30.41 4.324 24C4.324 17.592 4.35 16.834 4.464 14.302C4.762 7.848 7.792 4.76 14.302 4.464C16.834 4.35 17.592 4.326 24 4.326ZM24 0C17.482 0 16.666 0.028 14.106 0.144C5.39 0.544 0.546 5.38 0.146 14.104C0.028 16.666 0 17.482 0 24C0 30.518 0.028 31.336 0.144 33.896C0.544 42.612 5.38 47.456 14.104 47.856C16.666 47.972 17.482 48 24 48C30.518 48 31.336 47.972 33.896 47.856C42.604 47.456 47.46 42.62 47.854 33.896C47.972 31.336 48 30.518 48 24C48 17.482 47.972 16.666 47.856 14.106C47.464 5.398 42.622 0.546 33.898 0.146C31.336 0.028 30.518 0 24 0ZM24 11.676C17.194 11.676 11.676 17.194 11.676 24C11.676 30.806 17.194 36.326 24 36.326C30.806 36.326 36.324 30.808 36.324 24C36.324 17.194 30.806 11.676 24 11.676ZM24 32C19.582 32 16 28.42 16 24C16 19.582 19.582 16 24 16C28.418 16 32 19.582 32 24C32 28.42 28.418 32 24 32ZM36.812 8.31C35.22 8.31 33.93 9.6 33.93 11.19C33.93 12.78 35.22 14.07 36.812 14.07C38.402 14.07 39.69 12.78 39.69 11.19C39.69 9.6 38.402 8.31 36.812 8.31Z" fill="#2E2A2A"/>
</g>
<defs>
<clipPath id="clip0_29_126">
<rect width="48" height="48" fill="white"/>
</clipPath>
</defs>
</svg>
